!!!!SEGMENT: pl-wtm--r-2015_smietanski-emil-wladyslaw--fantasie-hongroise-op-8.krn
!!!cenid: 18xx:1999
!!!COM: Śmietański, Emil Władysław
!!!COM-rismID: pe50041781
!!!CDT: 1845-1886
!!!CNT: Polish
!!!OTL: Fantasie hongroise op. 8
!!!PDT: 1866
!!!AGN: Secular
!!!SMS-siglum: PL-Wtm
!!!SMS-shelfmark: R 2015
!!!SMS-shelfwork: W
!!!SMS-variant:
!!!SMS-altvar:
!!!NIFC-rismSourceID: 1001111857
!!!NIFC-islandoraID: pl-wtm:29424
!!!URL-pdf-islandora: https://repozytorium.nifc.pl/islandora/object/pl-wtm%3A29424/datastream/PDF/view
!!!URL-scan: https://polish.musicsources.pl/pl/lokalizacje/galeria/rekopisy/6508 @EN{Scan on Polish Music Herritage in Open Access Website} @PL{Skany w portalu Dziedzictwo Muzyki Polskiej w otwartym dostępie}
!!!ONB-nifc:
!!!OMD: Grave.
!!!AIN: 1 forte
!!!key:
**kern	**kern	**fing	**dynam
*part1	*part1	*part1	*part1
*staff2	*staff1	*staff1	*
*Iforte	*Iforte	*	*
*I"Fortepian	*I"Fortepian	*	*
*I'pf	*I'pf	*	*
*clefF4	*clefG2	*	*
*k[b-]	*k[b-]	*	*
*d:	*d:	*	*
*M4/4	*M4/4	*	*
*met(c)	*met(c)	*	*
=1	=1	=1	=1
.	32qqa/LLL	.	.
.	32qqb-/	.	.
.	32qqcc#X/JJJ	.	.
*	*2\right	*	*
!	!	!	!LO:DY:rj
4F 4AA 4DD/	2dd 2a 2d\	.	f
4f 4A 4D\	.	.	.
.	32qqa\LLL	.	.
.	32qqb-\	.	.
.	32qqcc#X\	.	.
.	32qqdd\	.	.
.	32qqee\	.	.
.	32qqff\	.	.
.	32qqgg#X\JJJ	.	.
4F 4AA 4DD/	2aa 2dd 2a\	.	.
4f 4A 4D\	.	.	.
=2	=2	=2	=2
.	32qqaa/	.	.
4F 4BB- 4DD/	8gg#XL 8dd 8g#X\	.	.
.	32qqgg#/	.	.
.	8ffJ 8b- 8f\	.	.
!	!LO:TX:b:t=↓	!	!
.	32qqff/	.	.
4f 4G#X 4D\	8eeL 8b- 8e\	.	.
.	32qqee/	.	.
.	8ddJ 8g# 8d\	.	.
.	32qqa\LLL	.	.
.	32qqb-\	.	.
!	!LO:TX:b:t=↓	!	!
.	32qqcc#X\JJJ	.	.
*	*2\left	*	*
4C#X 4EE 4AAA/	2ee 2a 2e\	.	.
4c#X 4E 4AA\	.	.	.
=3	=3	=3	=3
8EL 8AA\	16cc#XLL 16a 16e'\	.	.
!	!	!	!LO:DY:rj
.	16dd'\	.	p
8c#XJ 8E\	16ee 16a 16e'\	.	.
.	16a'\JJ	.	.
8FL 8AA\	16ddLL 16a 16f'\	.	.
.	16ee'\	.	.
8dJ 8F\	16ff 16a 16f'\	.	.
.	16a'\JJ	.	.
8EL 8AA\	16eeLL 16a 16e\	.	.
.	16cc#\	.	.
8c#J 8E\	16a 16e\	.	.
.	16cc#\JJ	.	.
8EL 8AA\	16eeLL 16a 16e\	.	.
.	16cc#\	.	.
8c#J 8E\	16ee 16a 16e\	.	.
.	16aa\JJ	.	.
=4	=4	=4	=4
4F 4AA 4DD\	4dd 4a 4d\	.	.
.	32qqcc#X/LLL	.	.
.	32qqdd/	.	.
.	32qqee/JJJ	.	.
4e 4G 4AA\	8.ddL 8.a 8.d\	.	.
.	16cc#XJk 16a 16c#X\	.	.
2F 2AA 2DD\	2dd 2a 2d\	.	.
!!LO:LB:g=original
=5	=5	=5	=5
.	32qqdd/LLL	.	.
.	32qqee-X/	.	.
.	32qqff#X/JJJ	.	.
!	!	!	!LO:DY:rj
4B- 4D 4GG\	2gg 2dd 2g\	.	f
4b- 4d 4G\	.	.	.
.	32qqdd/LLL	.	.
.	32qqee-X/	.	.
.	32qqff#/JJJ	.	.
8B-L 8D 8GG\	16ggLL 16dd 16g\	.	.
.	16aa 16a\	.	.
8dJ 8B-\	16bb- 16b-\	.	.
.	16aaJJ 16a\	.	.
8AL 8D\	8ggL 8dd 8g\	.	.
8dJ 8A\	8ff#J 8dd 8f#X\	.	.
=6	=6	=6	=6
!	!LO:TUP:a:problem=klamra łukowa	!	!
8B-L 8D 8GG\	24ggLL 24dd 24g\	.	.
.	24aa\	.	.
.	24gg\JJ	.	.
8dJ 8A 8D\	16ff#XLL 16dd 16f#X\	.	.
.	16aaJJ 16a\	.	.
*	*Xtuplet	*	*
8B-L 8G\	24ggLL 24dd 24g\	.	.
.	24aa\	.	.
.	24gg\JJ	.	.
8dJ 8A 8D\	16ff#LL 16dd 16f#\	.	.
.	16aaJJ 16a\	.	.
4B- 4G\	4.gg 4.dd 4.g\	.	.
4GG/	.	.	.
.	8ff#X 8f#X\	.	.
=7	=7	=7	=7
.	32qqdd\LLL	.	.
.	32qqee-X\	.	.
.	32qqff#X\JJJ	.	.
!	!	!	!LO:DY:rj
4F#X 4AA 4DD\	8.aaL 8.dd 8.f#X\	.	pp
.	16dddJk 16dd\	.	.
4f#X 4A 4D\	16aaLL 16a\	.	.
.	16ddd 16dd\	.	.
.	16aa 16a\	.	.
.	16dddJJ 16dd\	.	.
!	!LO:TX:b:t=↓	!	!
8F#XL 8AA 8DD^^\	8ff#XL 8dd 8f#\	.	.
!	!LO:TX:b:i:t=con dolore.:dur=4es	!	!
8G^^\	8gg 8ee-X 8g\	.	.
8A 8D^^\	8aa 8ff# 8a\	.	.
8B-^^\J	8bb-J 8gg 8b-\	.	.
=8	=8	=8	=8
.	32qqdd/LLL	.	.
.	32qqee-X/	.	.
.	32qqff#X/	.	.
.	32qqgg/JJJ	.	.
4F#X 4AA 4DD\	8.aaL 8.dd 8.a\	.	.
.	16ddJk 16d\	.	.
4f#X 4A 4D\	16aaLL 16a\	.	.
.	16dd 16d\	.	.
.	16aa 16a\	.	.
.	16ddJJ 16d\	.	.
.	32qqaa/	.	.
4G 4C#X 4EE-X\	8ggL 8cc#X 8g\	.	.
.	8ff#X 8f#X\	.	.
4c#X 4A 4E-X\	8gg 8cc# 8g\	.	.
.	8aaJ 8a\	.	.
!!LO:LB:g=original
=9	=9	=9	=9
*^	*	*	*
.	.	32qqdd/LLL	.	.
.	.	32qqee-X/	.	.
.	.	32qqff#X/JJJ	.	.
4F#X 4AA 4DD\	2ryy	8.aaL 8.dd 8.f#X\	.	.
.	.	16dddJk 16dd\	.	.
4f#X 4A 4D\	.	16aaLL 16a\	.	.
.	.	16ddd 16dd\	.	.
.	.	16aa 16a\	.	.
.	.	16dddJJ 16dd\	.	.
8F#L 8BB- 8DD'^^\	4ryy	8ff#XL 8dd 8f#\	.	.
8G^^\	.	8gg 8ee-X 8g\	.	.
8G#X 8BB-\	8ryy	8gg#X 8een 8g#X\	.	.
8d\J	8rff	8bb-J 8b-\	.	.
*v	*v	*	*	*
=10	=10	=10	=10
4c#X 4AA\	8.aaL 8.dd 8.a\	.	.
.	16eeJk 16e\	.	.
*clefG2	*	*	*
4cc#X 4A/	16aaLL 16a\	.	.
.	16ee 16e\	.	.
.	16aa 16a\	.	.
.	16eeJJ 16e\	.	.
.	32qqee	.	.
*clefF4	*	*	*
4D 4GG#X 4BBB-/	8ddL 8g#X 8d\	.	.
.	8cc#X 8c#X\	.	.
4G#X 4E 4BB-/	8dd 8g# 8d\	.	.
.	8eeJ 8e\	.	.
=11	=11	=11	=11
4c#X 4AA\	8.aaL 8.ee 8.a\	.	.
.	16eeJk 16e\	.	.
4cc#X 4A\	16aaLL 16a\	.	.
.	16ee 16e\	.	.
.	16aa 16a\	.	.
.	16eeJJ 16e\	.	.
4E 4AA\	8.a\L	.	.
.	16e\Jk	.	pp
4c# 4A\	16a\LL	.	.
.	16e\	.	.
.	16a\	.	.
.	16e\JJ	.	.
=12	=12	=12	=12
*	*tremolo	*	*
!	!LO:TX:a:t=trem.	!	!
2c#X 2E 2AA;\	64a;\LLLL	.	.
.	64e\	.	.
.	64a\	.	.
.	64e\	.	.
.	64a\	.	.
.	64e\	.	.
.	64a\	.	.
.	64e\	.	.
.	64a\	.	.
.	64e\	.	.
.	64a\	.	.
.	64e\	.	.
.	64a\	.	.
.	64e\	.	.
.	64a\	.	.
.	64e\	.	.
.	64a\	.	.
.	64e\	.	.
.	64a\	.	.
.	64e\	.	.
.	64a\	.	.
.	64e\	.	.
.	64a\	.	.
.	64e\	.	.
.	64a\	.	.
.	64e\	.	.
.	64a\	.	.
.	64e\	.	.
.	64a\	.	.
.	64e\	.	.
.	64a\	.	.
.	64e\JJJJ	.	.
*	*cue	*	*
*	*Xtremolo	*	*
!	!LO:TX:b:i:t=Cadenza ad lib.	!	!
4ryy	64e\LLLL	.	.
.	64f\	.	.
.	64g#X\	.	.
.	64b-\	.	.
.	64a\	.	.
.	64b-\	.	.
.	64cc#X\	.	.
.	64ff\	.	.
.	64ee\	.	.
.	64ff\	.	.
.	64gg#X\	.	.
.	64bb-\	.	.
.	64aa\	.	.
.	64bb-\	.	.
.	64ccc#X\	.	.
.	64fff\JJJJ	.	.
*	*8va	*	*
8ryy	64eee\LLLL	.	.
.	64fff\	.	.
.	64ggg#X\	.	.
.	64bbb-\	.	.
.	64aaa\	.	.
.	64bbb-\	.	.
.	64cccc#X\	.	.
.	64ffff\JJJJ	.	.
!!LO:LB:g=original
64%63ryy	64aaa\LLLL	.	.
.	64bbb-\	.	.
.	64cccc#X\	.	.
.	64eeee\	.	.
.	64aaa\	.	<
.	64bbb-\	.	.
.	64cccc#\	.	.
.	64ffff\JJJJ	.	.
.	64aaa\LLLL	.	.
.	64bbb-\	.	.
.	64cccc#\	.	.
.	64eeee\	.	.
.	64aaa\	.	.
.	64bbb-\	.	.
.	64cccc#\	.	.
.	64ffff\JJJJ	.	.
.	64aaa\LLLL	.	.
.	64bbb-\	.	.
.	64cccc#\	.	.
.	64eeee\	.	.
.	64aaa\	.	.
.	64bbb-\	.	.
.	64cccc#\	.	.
.	64ffff\JJJJ	.	.
.	64aaa\LLLL	.	[
.	64bbb-\	.	>
.	64cccc#\	.	.
.	64eeee\	.	.
.	64cccc#\	.	.
.	64dddd\	.	.
.	64bbb-\	.	.
.	64cccc#\	.	.
.	64aaa\	.	.
.	64bbb-\	.	.
.	64ggg#X\	.	.
.	64aaa\	.	.
.	64fff\	.	.
.	64ggg#X\	.	.
.	64eee\JJJJ	.	.
*	*X8va	*	*
!	!LO:TX:a:t=loco	!	!
.	64fff\LLLL	.	.
.	64ddd\	.	.
.	64eee\	.	.
.	64ccc#X\	.	.
.	64ddd\	.	.
.	64bb-\	.	.
.	64ccc#\	.	.
.	64aa\	.	.
.	64bb-\	.	]
.	64gg#X\	.	.
.	64aa\	.	.
.	64ff\	.	.
.	64gg#\	.	.
.	64ee\	.	.
.	64ff\	.	.
.	64dd\	.	.
.	64ee\	.	.
.	64cc#X\	.	.
.	64dd\	.	.
.	64b-\	.	.
.	64cc#\	.	.
.	64a\	.	.
.	64b-\	.	.
.	64g#X\JJJJ	.	.
2ryy	64a\LLLL	.	.
.	64f\	.	.
.	64b-\	.	.
.	64g#\	.	.
.	64a\	.	.
.	64f\	.	.
.	64b-\	.	.
.	64g#\JJJJ	.	.
.	64a\LLLL	.	.
.	64e\	.	.
.	64b-\	.	.
.	64g#\	.	.
.	64a\	.	.
.	64e\	.	.
.	64b-\	.	.
.	64g#\JJJJ	.	.
!	!LO:TX:b:t=rit.:problem=text with extention lines	!	!
.	64a\LLLL	.	.
.	64d\	.	.
.	64b-\	.	.
.	64g#\	.	.
.	64a\	.	.
.	64d\	.	.
.	64b-\	.	.
.	64g#\JJJJ	.	.
.	64a\LLLL	.	.
.	64B-\	.	.
.	64b-\	.	.
.	64g#\	.	.
.	64a\	.	.
.	64B-\	.	.
.	64b-\	.	.
.	64g#\JJJJ	.	.
*	*Xcue	*	*
!!LO:LB:g=original
=13	=13	=13	=13
8r	8a\	.	.
!LO:TX:t=P:problem=mixed beam	!	!	!
8c#X\L	(8aL 8e\	.	.
8AA/J	8A\J)	.	.
8c#\	8a 8e\	.	.
=14||	=14||	=14||	=14||
*M2/4	*M2/4	*	*
.	32qqd/LLL	.	.
.	32qqe/	.	.
.	32qqf/	.	.
.	32qqg#X/JJJ	.	.
!	!LO:TX:b:i:t=risoluto.	!	!
!	!LO:TX:a:B:t=Piu mosso.	!	!
8AAL 8DD^^\	4a 4d 4A\	.	.
8AJ 8D\	.	.	.
.	32qqa/	.	.
8BB-L 8DD^^\	16g#/LL	.	.
.	32qqg#/	.	.
.	16f/	.	.
.	32qqf/	.	.
8B-J 8D\	16e/	.	.
.	32qqe/	.	.
.	16d/JJ	.	.
=15	=15	=15	=15
(8AAL 8DD\	32aLLL 32d 32A\	.	.
.	32f\	.	.
.	32d 32A\	.	.
.	32f\JJJ	.	.
8AJ 8D\)	32aLLL 32d\	.	.
.	32f\	.	.
.	32a 32d\	.	.
.	32dd\JJJ	.	.
(8AAL 8DD\	4a 4d\	.	.
8AJ 8D\)	.	.	.
=16	=16	=16	=16
(8C#XL 8AA\	16aLL 16c#X 16A\	.	.
.	16eeJ 16a 16e\	.	.
8c#XJ 8C#\)	8aaJ 8cc#X 8a\	.	.
(8C#L 8FF\	32cc#\LLL	.	.
.	32aa\	.	.
.	32cc#\	.	.
.	32a\JJJ	.	.
8c#J 8C#\)	32a\LLL	.	.
.	32cc#\	.	.
.	32a\	.	.
.	32c#\JJJ	.	.
=17	=17	=17	=17
(8AAL 8EE\	32a\LLL	.	.
.	32ee\	.	.
.	32a\	.	.
.	32e\JJJ	.	.
8AJ 8C#X\)	32e\LLL	.	.
.	32a\	.	.
.	32e\	.	.
.	32A\JJJ	.	.
(8EEL 8AAA/	4A\	.	.
8EJ 8AA/)	.	.	.
=18	=18	=18	=18
.	32qqA\LLL	.	.
.	32qqB-\	.	.
.	32qqc#X\	.	.
.	32qqe\JJJ	.	.
(8FFL 8AAA/	16dLL 16B-/	.	.
.	16c#yJ 16A/	.	.
8DJ 8BB-/)	8dJ 8B-/	.	.
!!LO:LB:g=original
.	32qqB-/LLL	.	.
.	32qqd/	.	.
.	32qqe/	.	.
.	32qqg/JJJ	.	.
(8FFL 8AAA/	16fLL 16d/	.	.
.	16eJ 16c#X/	.	.
8DJ 8BB-/)	8fJ 8d/	.	.
=19	=19	=19	=19
(8FFL 8AAA/	16.b-LL 16.d\	.	.
!	!	!	!LO:DY:rj
.	32ff\JJk	.	ff
8FJ 8BB-/)	32b-LLL 32d\	.	.
.	32ff\	.	.
.	32b- 32d\	.	.
.	32ff\JJJ	.	.
(8FFL 8AAA/	4b- 4d\	.	.
8FJ 8BB-/)	.	.	.
=20	=20	=20	=20
.	32qqd/	.	.
8FFL 8AAA/	16aLL 16f 16c#X\	.	sf
.	16aJ 16f 16cn\	.	.
8FJ 8AA/	8aJ 8f 8c#X\	.	.
8FL 8AA\	32cn\LLL	.	.
.	32f\	.	pp
.	32f\	.	.
.	32ccn\JJJ	.	.
8cJ 8F\	32f\LLL	.	.
.	32cc\	.	.
.	32cc\	.	.
.	32ff\JJJ	.	.
=21	=21	=21	=21
8fL 8A\	32cc#X\LLL	.	.
.	32ff\	.	.
.	32ff\	.	.
.	32ccc#X\JJJ	.	.
8cc#XJ 8f\	32ff\LLL	.	.
.	32ccc#\	.	.
.	32ccc#\	.	.
.	32fff\JJJ	.	.
*clefG2	*	*	*
8ccnL 8f\	4cccn\	.	.
8ffJ 8cc\	.	.	.
=22	=22	=22	=22
.	32qqfff/	.	.
8ccL 8e 8A\	16eeeLL 16ccc\	.	pp
.	16ddd#XJ 16bbn\	.	.
!	!LO:TX:b:i:t=dolce	!	!
8aaJ 8ee 8a\	8eeeJ 8ccc\	.	.
!LO:TX:t=P:problem=mixed beam	!	!	!
8g#XL 8Bn 8E/	32eeeLLL 32bb\	.	.
.	32gg#X\	.	.
.	32bb 32ee\	.	.
.	32gg#JJJ\	.	.
8gg#XJ 8ee 8g#\	32eeeLLL 32bb\	.	.
.	32ggg#X\	.	.
*	*8va	*	*
.	32bbb 32eee\	.	.
.	32eeee\JJJ	.	.
!!LO:PB:g=original
=23	=23	=23	=23
!LO:TX:t=P:problem=mixed beam	!	!	!
8ccL 8e 8A/	32aaa\LLL	.	.
.	32eeee\	.	.
.	32aaa\	.	.
.	32eee\JJJ	.	.
*	*X8va	*	*
!	!LO:TX:a:t=loc	!	!
8eeJ 8cc 8e\	32aa\LLL	.	.
.	32ccc\	.	.
.	32aa\	.	.
.	32ee\JJJ	.	.
*clefF4	*	*	*
8cL 8E 8AA\	4a\	.	.
8eJ 8c 8E\	.	.	.
=24	=24	=24	=24
.	32qqd/	.	<
8FL 8AA\	16aLL 16f 16c\	.	.
.	16aJ 16f 16Bn\	.	.
8AJ 8F\	8aJ 8f 8c\	.	.
.	32qqd/	.	.
8FL 8AA\	16aLL 16f 16c#X\	.	.
.	16aJ 16f 16cn\	.	.
8AJ 8F\	8aJ 8f 8c#X\	.	[[
=25	=25	=25	=25
!LO:TX:t=P:problem=mixed beam	!	!	!LO:DY:t=forte
8C#XL 8EE 8AAA/	16.eLL 16.A\	.	f
.	32a\JJk	.	.
8c#XJ 8E\	32eLLL 32A\	.	.
.	32a\	.	.
.	32e 32A\	.	.
.	32a\JJJ	.	.
!LO:TX:t=P:problem=mixed beam	!	!	!
8C#L 8EE 8AAA/	4e 4A\	.	.
8c#J 8E\	.	.	.
=26	=26	=26	=26
8EL 8AA\	32A\LLL	.	.
.	32e\	.	.
.	32e\	.	.
.	32a\JJJ	.	.
8c#XJ 8E\	32e\LLL	.	.
.	32a\	.	.
.	32a\	.	.
.	32ee\JJJ	.	.
!	!LO:TX:b:t=Cadenza.:dur=2q:problem=text with extention lines	!	!
8EL 8BB-\	32e\LLL	.	.
.	32g#X\	.	.
.	32g#\	.	.
.	32ee\JJJ	.	.
8dJ 8E\	32ee\LLL	.	.
.	32gg#X\	.	.
.	32gg#\	.	.
.	32eee\JJJ	.	.
*clefG2	*	*	*
=27	=27	=27	=27
8eL 8A/	32a\LLL	.	.
.	32ee\	.	.
.	32ee\	.	.
.	32aa\JJJ	.	.
8cc#XJ 8e/	32ee\LLL	.	.
.	32aa\	.	.
.	32aa\	.	.
.	32eee\JJJ	.	.
8eL 8B-\	32ee\LLL	.	.
.	32gg#X\	.	.
.	32gg#\	.	.
.	32eee\JJJ	.	.
*	*8va	*	*
8ddJ 8e\	32eee\LLL	.	.
.	32ggg#\	.	.
.	32ggg#\	.	.
.	32eeee\JJJ	.	.
!!LO:LB:g=original
=28	=28	=28	=28
*8va	*	*	*
8eeL 8b-\	32eee\LLL	.	.
.	32ggg#X\	.	.
!	!LO:TX:b:i:t=accelerando molto:dur=6e	!	!
.	32ggg#X\	.	.
.	32eeee\JJJ	.	.
8dddJ 8ee\	32eee\LLL	.	.
.	32ggg#\	.	.
.	32ggg#\	.	.
.	32eeee\JJJ	.	.
8eeL 8b-\	32eee\LLL	.	.
.	32ggg#\	.	.
.	32ggg#\	.	.
.	32eeee\JJJ	.	.
8dddJ 8ee\	32eee\LLL	.	.
.	32ggg#\	.	.
.	32ggg#\	.	.
.	32eeee\JJJ	.	.
=29	=29	=29	=29
8eeL 8b-\	32eee\LLL	.	.
.	32ggg#X\	.	.
.	32ggg#\	.	.
.	32eeee\JJJ	.	.
8dddJ 8ee\	32eee\LLL	.	.
.	32ggg#\	.	.
.	32ggg#\	.	.
.	32eeee\JJJ	.	.
8eeL 8b-\	32eee\LLL	.	.
.	32ggg#\	.	.
.	32ggg#\	.	.
.	32eeee\JJJ	.	.
8dddJ 8ee\	32eee\LLL	.	.
.	32ggg#\	.	.
.	32ggg#\	.	.
.	32eeee\JJJ	.	.
*X8va	*	*	*
=30	=30	=30	=30
16ccc#X 16ee 16a\	32aaaa\LLL	.	.
!	!	!	!LO:DY:rj:t=ff.
.	32eeee\JJJ	.	ff
!	!LO:TX:b:i:t=brillante.	!	!
!	!LO:TX:b:t=ms	!	!
16ryy	32aaa/LLL	.	.
.	32eee/JJJ	.	.
8ryy	32eeee\LLL	.	.
.	32aaa\JJJ	.	.
!	!LO:TX:b:t=ms	!	!
.	32eee/LLL	.	.
.	32aa/JJJ	.	.
*	*X8va	*	*
!	!LO:TX:a:t=loc.	!	!
4ryy	32aaa\LLL	.	.
.	32eee\JJJ	.	.
.	32aa/LLL	.	.
.	32ee/JJJ	.	.
.	32eee\LLL	.	.
.	32aa\JJJ	.	.
.	32ee/LLL	.	.
.	32a/JJJ	.	.
=31	=31	=31	=31
4ryy	32aa\LLL	.	.
.	32ee\JJJ	.	.
.	32a/LLL	.	.
.	32e/JJJ	.	.
.	32ee\LLL	.	.
.	32a\JJJ	.	.
.	32e/LLL	.	.
.	32A/JJJ	.	.
16ryy	32a\LLL	.	.
.	32e\JJJ	.	.
!LO:CL:ed	!	!	!
*clefF4	*	*	*
32A/LLL	16r	.	.
32E/JJJ	.	.	.
16r	32a\LLL	.	.
.	32e\JJJ	.	.
32A/LLL	16r	.	.
32E/JJJ	.	.	.
!!LO:LB:g=original
=32	=32	=32	=32
*clefF4	*	*	*
16AA\LL	32a\LLL	.	<
.	32e\JJJ	.	.
32A\L	16r	.	.
32E\JJJ	.	.	.
16AA\LL	32a\LLL	.	.
.	32e\JJJ	.	.
32A\L	16r	.	.
32E\JJJ	.	.	.
16AA\LL	32a\LLL	.	.
.	32e\JJJ	.	.
32A\L	16r	.	.
32E\JJJ	.	.	.
16AA\LL	32a\LLL	.	.
.	32e\JJJ	.	.
32A\L	16r	.	.
32E\JJJ	.	.	.
=33	=33	=33	=33
.	32qqA\LLL	.	.
.	32qqB-\	.	.
.	32qqc#X\	.	.
!	!LO:TX:b:t=↓	!	!
.	32qqe\JJJ	.	.
16AA\LL	8a\	.	.
32A\L	.	.	.
32E\JJJ	.	.	.
.	32qqA\LLL	.	.
.	32qqB-\	.	.
.	32qqc#\	.	.
!	!LO:TX:b:t=↓	!	!
.	32qqe\JJJ	.	.
16AA\LL	8a\	.	.
32A\L	.	.	.
32E\JJJ	.	.	.
.	32qqA\LLL	.	.
.	32qqB-\	.	.
.	32qqc#\	.	.
.	32qqe\JJJ	.	.
16AA\LL	8a\	.	.
32A\L	.	.	.
32E\JJJ	.	.	.
.	32qqA\LLL	.	.
.	32qqB-\	.	.
.	32qqc#\	.	.
.	32qqe\JJJ	.	.
16AA\LL	8a\	.	[[
32E\L	.	.	.
32AA\JJJ	.	.	.
=34||	=34||	=34||	=34||
.	32qqa\LLL	.	.
.	32qqb-\	.	.
!LO:TX:a:i:t=basso stacato sempre:dur=2hq	!LO:TX:a:B:t=Presto.	!	!
.	32qqcc#X\JJJ	.	.
8AAL 8DD/	8ddL 8a 8f|\	.	.
8EJ 8AA/	8cc#J 8g#X 8e|\	.	.
8AAL 8DD/	8b-L 8f 8d|\	.	.
8EJ 8AA/	8aJ 8e 8c#X|\	.	.
=35	=35	=35	=35
.	32qqd\LLL	.	.
.	32qqe-X\	.	.
.	32qqf#X\JJJ	.	.
8AAL 8DD/	4a\	.	.
8EJ 8AA/	.	.	.
.	32qqd\LLL	.	.
.	32qqe-\	.	.
.	32qqf#\JJJ	.	.
8AAL 8DD/	4a\	.	.
8EJ 8AA/	.	.	.
=36	=36	=36	=36
8AAL 8DD/	8.aL 8.f#X 8.d\	.	.
8F#XJ 8AA/	.	.	.
.	16ddJk 16b-\	.	.
8AAL 8DD/	16aLL 16f# 16d\	.	.
.	16dd 16b-\	.	.
8F#J 8AA/	16a 16f# 16d\	.	.
.	16ddJJ 16b-\	.	.
=37	=37	=37	=37
8AAL 8DD/	8.aL 8.f#X 8.d\	.	.
8F#XJ 8AA/	.	.	.
.	16A\Jk	.	.
8AAL 8DD/	16aLL 16f# 16d\	.	.
.	16A\	.	.
8F#J 8AA/	16a 16f# 16d\	.	.
.	16A\JJ	.	.
!!LO:LB:g=original
=38	=38	=38	=38
8BB-L 8DD\	16aLL 16f#X 16d\	.	.
.	16g 16e-X\	.	.
8G 8BB-\	16a 16f# 16d\	.	.
.	.	.	<
.	16gJJ 16e-\	.	.
8G 8BB-\	16aLL 16f# 16d\	.	.
.	16g 16e-\	.	.
8GJ 8BB-\	16a 16f# 16d\	.	.
.	16gJJ 16e-\	.	.
=39	=39	=39	=39
8BB-L 8DD\	16ccLL 16a 16f#X\	.	.
.	16b- 16g\	.	.
8G 8BB-\	16cc 16a 16f#\	.	.
.	16b-JJ 16g\	.	.
8G 8BB-\	16ccLL 16a 16f#\	.	.
.	16b- 16g\	.	.
8GJ 8BB-\	16cc 16a 16f#\	.	.
.	16b-JJ 16g\	.	.
=40	=40	=40	=40
8BBnL 8DD\	16eeLL 16bn 16g#X\	.	.
.	16a#X 16gn\	.	.
!	!LO:TX:b:t=↓	!	!
8G#X 8BB\	16ee 16b 16g#X\	.	.
.	16a#JJ 16gn\	.	.
8G# 8BB\	16eeLL 16b 16g#X\	.	.
.	16a# 16gn\	.	.
8G#J 8BB\	16ee 16b 16g#X\	.	.
.	16a#JJ 16gn\	.	[[
=41	=41	=41	=41
8G#X 8BBn 8DD\	8ee 8bn 8g#X\	.	.
8r	8r	.	.
4G# 4BB-X 4DD^^\	4ee 4b-X 4g#^^\	.	.
=42	=42	=42	=42
8C#XL 8EE 8AAA\	8.aL 8.g 8.c#X\	.	.
.	.	.	>
8GJ 8AA\	.	.	.
.	16ee\Jk	.	.
8C#L 8EE 8AAA\	16aLL 16g 16c#\	.	.
.	16ee\	.	.
8GJ 8AA\	16a 16g 16c#\	.	.
.	16ee\JJ	.	.
=43	=43	=43	=43
8AAL 8DD\	8.aL 8.f 8.d\	.	.
8FJ 8AA\	.	.	.
.	16dd\Jk	.	.
8AAL 8DD\	16aLL 16f 16d\	.	.
.	16dd\	.	.
8FJ 8AA\	16a 16f 16d\	.	.
.	16dd\JJ	.	.
=44	=44	=44	=44
8AAL 8EE\	16ccLL 16a 16e\	.	.
.	16A\	.	.
8EJ 8AA\	16cc 16a 16e\	.	.
.	16A\JJ	.	.
8GG#XL 8EE\	16bnLL 16g#X 16e\	.	.
.	16G#X\	.	.
8EJ 8GG#\	16b 16g# 16e\	.	]
.	16G#\JJ	.	.
!!LO:LB:g=original
=45	=45	=45	=45
8C#XL 8EE 8AAA\	8.eL 8.A\	.	.
8EJ 8AA\	.	.	.
.	16a\Jk	.	.
8C#L 8EE 8AAA\	16eLL 16A\	.	.
.	16a\	.	.
8EJ 8AA\	16e 16A\	.	.
.	16a\JJ	.	.
=46	=46	=46	=46
8C#XL 8EE 8AAA\	8.aL 8.g 8.c#X\	.	>
8GJ 8AA\	.	.	.
.	16ee\Jk	.	.
8C#L 8EE 8AAA\	16aLL 16g 16c#\	.	.
.	16ee\	.	.
8GJ 8AA\	16a 16g 16c#\	.	.
.	16ee\JJ	.	.
=47	=47	=47	=47
8AAL 8DD\	8.aL 8.f 8.d\	.	.
8FJ 8AA\	.	.	.
.	16dd\Jk	.	.
8AAL 8DD\	16aLL 16f 16d\	.	.
.	16dd\	.	.
8FJ 8AA\	16a 16f 16d\	.	.
.	16dd\JJ	.	.
=48	=48	=48	=48
8AAL 8EE\	16ccLL 16a 16e\	.	.
.	16A\	.	.
8EJ 8AA\	16cc 16a 16e\	.	.
.	16A\JJ	.	.
8GG#XL 8EE\	16bnLL 16g#X 16e\	.	.
.	16G#X\	.	.
8EJ 8GG#\	16b 16g# 16e\	.	.
.	16G#\JJ	.	.
=49	=49	=49	=49
8C#XL 8EE 8AAA\	8.eL 8.A\	.	.
8EJ 8AA\	.	.	.
.	16a\Jk	.	.
8C#L 8EE 8AAA\	16eLL 16A\	.	.
.	16a\	.	]
8EJ 8AA\	16e 16A\	.	.
.	16a\JJ	.	.
=50	=50	=50	=50
.	32qqa\LLL	.	.
.	32qqb-\	.	.
.	32qqcc#X\JJJ	.	.
!	!	!	!LO:DY:rj
8EL 8AA\	4ee|\	.	p
8AJ 8E\	.	.	.
.	32qqa\LLL	.	.
.	32qqb-\	.	.
.	32qqcc#\JJJ	.	.
8EL 8AA\	4ee|\	.	.
8AJ 8E\	.	.	.
=51	=51	=51	=51
8c#XL 8E 8AA\	8.eeL 8.a\	.	.
8eJ 8A\	.	.	.
.	16aa\Jk	.	.
8c#L 8E 8AA\	16eeLL 16a\	.	.
.	16aa\	.	.
8eJ 8A\	16ee 16a\	.	.
.	16aa\JJ	.	.
=52	=52	=52	=52
16D\LL	8dddL 8aa 8ff|\	.	.
16A\	.	.	.
16A\	8ccc#XJ 8gg#X 8ee|\	.	.
16e\JJ	.	.	.
16D\LL	8bb-L 8ff 8dd|\	.	.
16A\	.	.	.
16A\	8aaJ 8ee 8cc#X|\	.	.
16e\JJ	.	.	.
!!LO:LB:g=original
=53	=53	=53	=53
16BB-\LL	8gg#XL 8dd 8b-|\	.	.
16F\	.	.	.
16F\	8ffJ 8cc#X 8a|\	.	.
16c#X\JJ	.	.	.
16BB-\LL	8eeL 8b- 8g#X|\	.	.
16F\	.	.	.
16F\	8ddJ 8a 8f|\	.	.
16c#\JJ	.	.	.
=54	=54	=54	=54
16BB-\LL	8cc#XL 8g#X 8e|\	.	.
16F\	.	.	.
16F\	8ddJ 8a 8f|\	.	.
16c#X\JJ	.	.	.
16BB-\LL	8eeL 8b- 8g#|\	.	.
16F\	.	.	.
16F\	8ffJ 8cc# 8a|\	.	.
16c#\JJ	.	.	.
=55	=55	=55	=55
8EL 8AA\	8.eeL 8.cc#X 8.a\	.	.
8c#XJ 8E\	.	.	.
.	16e\Jk	.	.
8EL 8AA\	16eeLL 16cc# 16a\	.	.
.	16e\	.	.
8c#J 8E\	16ee 16cc# 16a\	.	.
.	16e\JJ	.	.
=56	=56	=56	=56
8FL 8AA\	16eeLL 16cc#X 16a\	.	.
.	16dd 16b-\	.	.
8dJ 8F\	16ee 16cc# 16a\	.	.
.	16ddJJ 16b-\	.	.
.	.	.	<
8dL 8F\	16eeLL 16cc# 16a\	.	.
.	16dd 16b-\	.	.
8dJ 8F\	16ee 16cc# 16a\	.	.
.	16ddJJ 16b-\	.	.
=57	=57	=57	=57
8FL 8AA\	16ggLL 16ee 16cc#X\	.	.
.	16ff 16dd\	.	.
8fJ 8B-\	16gg 16ee 16cc#\	.	.
.	16ffJJ 16dd\	.	.
8fL 8B-\	16ggLL 16ee 16cc#\	.	.
.	16ff 16dd\	.	.
8fJ 8B-\	16gg 16ee 16cc#\	.	.
.	16ffJJ 16dd\	.	.
=58	=58	=58	=58
8FL 8AA\	16dddLL 16bb- 16ff\	.	.
.	16gg#X 16ee\	.	.
8g#X 8d\	16ddd 16bb- 16ff\	.	.
.	16gg#JJ 16ee\	.	.
8g# 8d\	16dddLL 16bb- 16ff\	.	.
.	16gg# 16ee\	.	.
8g#J 8d\	16ddd 16bb- 16ff\	.	.
.	16gg#JJ 16ee\	.	.
=59	=59	=59	=59
4g#X 4d\	16dddLL 16bb- 16ff\	2 4 5	.
.	16gg#X 16ee\	.	[
.	16bb- 16ff 16dd\	1 4 5	>
.	16eeJJ 16cc#X\	.	.
4r	16ffLL 16dd 16b-\	.	.
.	16cc#X 16g#X\	.	.
.	16dd 16b- 16f\	.	.
.	16g#JJ 16e\	.	]
!!LO:PB:g=original
=60	=60	=60	=60
8AA'\L	16cc#XLL 16a'\	.	.
.	16e\JJ	.	.
8d 8G#X'\	16ddLL 16b-'\	.	.
.	16f\JJ	.	.
8c#X 8A'\	16cc#LL 16a'\	.	.
.	16f\JJ	.	.
8dJ 8B-'\	16b-LL 16g#X'\	.	.
.	16e\JJ	.	.
=61	=61	=61	=61
8AA'\L	16cc#XLL 16a'\	.	.
.	16e\JJ	.	.
8c#X 8A'\	16cc#LL 16a'\	.	.
.	16e\JJ	.	.
8d 8A-X'\	16ddLL 16b-X'\	.	.
.	16f\JJ	.	.
8e-XJ 8G'\	16ee-XLL 16b-'\	.	.
.	16g\JJ	.	.
=62	=62	=62	=62
8BB-'\L	16ddLL 16b-'\	.	.
.	16f\JJ	.	.
8e-X 8A'\	16ee-XLL 16cc-X'\	.	.
.	16g-X\JJ	.	.
8d 8B-'\	16ddLL 16b-'\	.	.
.	16g-\JJ	.	.
8e-J 8c-X'\	16cc-LL 16a'\	.	.
.	16f\JJ	.	.
=63	=63	=63	=63
8BB-\L	16ddLL 16b-'\	.	.
.	16f\JJ	.	.
8d 8B-\	16ddLL 16b-'\	.	.
.	16f\JJ	.	.
8d#X 8A\	16dd#XLL 16bn\	.	.
.	16f#X\JJ	.	.
8enJ 8G#X\	16eenLL 16b\	.	.
!	!LO:TX:t=cresc_:problem=dynamics with extention lines	!LO:HP:t=cresc:dur=9es:ext=cd	!
.	16g#X\JJ	.	<
=64	=64	=64	=64
8BBn\L	16dd#XLL 16bn\	.	.
.	16f#X\JJ	.	.
8e 8A#X\	16eeLL 16cc\	.	.
.	16g\JJ	.	.
8d#X 8Bn\	16dd#LL 16b\	.	.
.	16g\JJ	.	.
8eJ 8c\	16ccLL 16a#X\	.	.
.	16f#\JJ	.	.
=65	=65	=65	=65
8BBn\L	16dd#XLL 16bn\	.	.
.	16f#X\JJ	.	.
8e 8A#X\	16eeLL 16cc\	.	.
.	16g\JJ	.	.
8d#X 8Bn\	16dd#LL 16b\	.	.
.	16f#\JJ	.	.
8eJ 8A#\	16eeLL 16cc\	.	.
.	16g\JJ	.	.
=66	=66	=66	=66
8f 8A\	16ffnLL 16cc\	.	.
.	16fn\	.	[
!	!LO:TX:a:t=ms	!	!
8dd#>X/	16bn\	.	.
.	16f#X\JJ	.	.
8e 8G#X\	16eeLL 16b\	.	.
.	16e\	.	.
!	!LO:TX:a:t=ms	!	!
8dd#>/	16b-X\	.	.
.	16fn\JJ	.	.
!!LO:LB:g=original
=67	=67	=67	=67
8e-X 8G\	16ee-XLL 16b-\	.	.
.	16e-X\	.	.
8cc#>X/	16a\	.	.
.	16en\JJ	.	.
8d 8F#X\	16ddLL 16a\	.	.
.	16d\	.	.
8ccn>/	16a-X\	.	.
.	16e-X\JJ	.	.
=68	=68	=68	=68
8d-X 8Fn\	16dd-XLL 16a-X\	.	.
.	16d-X\	.	.
8bn>/	16g\	.	.
.	16dn\JJ	.	.
8c 8E\	16ccLL 16g\	.	.
.	16c\	.	.
8a#X>/	16f#X\	.	.
.	16c#X\JJ	.	.
=69	=69	=69	=69
8Bn 8D#X\	16bnLL 16f#X\	.	.
.	16Bn\	.	.
8a>/	16fn\	.	.
.	16cn\JJ	.	.
8B-X 8Dn\	16b-XLL 16f\	.	.
.	16B-X\	.	.
8g#X>/	16e\	.	.
.	16Bn\JJ	.	.
=70	=70	=70	=70
8AL 8C#X\	8.aL 8.e\	.	<
8e\J	.	.	.
.	16A\Jk	.	.
8EL 8AA\	8aL 8e\	.	.
8c#XJ 8E\	8aJ 8e\	.	.
=71	=71	=71	=71
8EL 8AA\	8.aL 8.e\	.	.
8c#XJ 8E\	.	.	.
.	16A\Jk	.	.
8EL 8AA\	8aL 8e\	.	.
8c#XJ 8E\	8aJ 8e\	.	.
=72	=72	=72	=72
8AAL 8DD\	8.aL 8.f#X 8.d\	.	[
8F#XJ 8AA\	.	.	.
.	16ddJk 16b-\	.	.
8AAL 8DD\	16aLL 16f# 16d\	.	.
.	16dd 16b-\	.	.
8F#J 8AA\	16a 16f# 16d\	.	.
.	16ddJJ 16b-\	.	.
=73	=73	=73	=73
8AAL 8DD\	8.aL 8.f#X 8.d\	.	.
8F#XJ 8AA\	.	.	.
.	16A\Jk	.	.
8AAL 8DD\	16aLL 16f# 16d\	.	.
.	16A\	.	.
8F#J 8AA\	16a 16f# 16d\	.	.
.	16A\JJ	.	.
!!LO:LB:g=original
=74	=74	=74	=74
8BB-L 8DD\	16aLL 16f#X 16d\	.	.
.	.	.	<
.	16g 16e-X\	.	.
8G 8BB-\	16a 16f# 16d\	.	.
.	16gJJ 16e-\	.	.
8G 8BB-\	16aLL 16f# 16d\	.	.
.	16g 16e-\	.	.
8GJ 8BB-\	16a 16f# 16d\	.	.
.	16gJJ 16e-\	.	.
=75	=75	=75	=75
8BB-L 8DD\	16ccLL 16a 16f#X\	.	.
.	16b- 16g\	.	.
8G 8BB-\	16cc 16a 16f#\	.	.
.	16b-JJ 16g\	.	.
8G 8BB-\	16ccLL 16a 16f#\	.	.
.	16b- 16g\	.	.
8GJ 8BB-\	16cc 16a 16f#\	.	.
.	16b-JJ 16g\	.	.
=76	=76	=76	=76
8BBnL 8DD\	16eeLL 16bn 16g#X\	.	.
.	16a#X 16gn\	.	.
8G#X 8BB\	16ee 16b 16g#X\	.	.
.	16a#JJ 16gn\	.	.
8G# 8BB\	16eeLL 16b 16g#X\	.	.
.	16a# 16gn\	.	.
8G#J 8BB\	16ee 16b 16g#X\	.	.
.	16a#JJ 16gn\	.	[[
=77	=77	=77	=77
8G#X 8BBn 8DD\	8ee 8bn 8g#X\	.	.
8r	8r	.	.
4G# 4BB-X 4DD\	4ee 4b-X 4g#^^\	.	.
=78	=78	=78	=78
8C#XL 8EE 8AAA/	8.aL 8.g 8.c#X\	.	>
8GJ 8AA/	.	.	.
.	16ee\Jk	.	.
8C#L 8EE 8AAA/	16aLL 16g 16c#\	.	.
.	16ee\	.	.
8GJ 8AA/	16a 16g 16c#\	.	.
.	16ee\JJ	.	.
=79	=79	=79	=79
8AAL 8DD/	8.aL 8.f 8.d\	.	.
8FJ 8AA/	.	.	.
.	16dd\Jk	.	.
8AAL 8DD/	16aLL 16f 16d\	.	.
.	16dd\	.	.
8FJ 8AA/	16a 16f 16d\	.	.
.	16dd\JJ	.	.
=80	=80	=80	=80
8AAL 8EE\	16ccLL 16a 16e\	.	.
.	16A\	.	.
8EJ 8AA\	16cc 16a 16e\	.	.
.	16A\JJ	.	.
8GG#XL 8EE\	16bnLL 16g#X 16e\	.	.
.	16G#X\	.	]
8EJ 8GG#\	16b 16g# 16e\	.	.
.	16G#\JJ	.	.
!!LO:LB:g=original
=81	=81	=81	=81
8C#XL 8EE 8AAA/	8.eL 8.A\	.	.
8EJ 8AA/	.	.	.
.	16a\Jk	.	.
8C#L 8EE 8AAA/	16eLL 16A\	.	.
.	16a\	.	.
8EJ 8AA/	16e 16A\	.	.
.	16a\JJ	.	.
=82	=82	=82	=82
8C#XL 8EE 8AAA/	8.aL 8.g 8.c#X\	.	>
8GJ 8AA/	.	.	.
.	16ee\Jk	.	.
8C#L 8EE 8AAA/	16aLL 16g 16c#\	.	.
.	16ee\	.	.
8GJ 8AA/	16a 16g 16c#\	.	.
.	16ee\JJ	.	.
=83	=83	=83	=83
8AAL 8DD/	8.aL 8.f 8.d\	.	.
8FJ 8AA/	.	.	.
.	16dd\Jk	.	.
8AAL 8DD/	16aLL 16f 16d\	.	.
.	16dd\	.	.
8FJ 8AA/	16a 16f 16d\	.	.
.	16dd\JJ	.	.
=84	=84	=84	=84
8AAL 8EE/	16ccLL 16a 16e\	.	.
.	16A\	.	.
8EJ 8AA/	16cc 16a 16e\	.	.
.	16A\JJ	.	.
8GG#XL 8EE/	16bnLL 16g#X 16e\	.	.
.	16G#X\	.	.
8EJ 8GG#/	16b 16g# 16e\	.	.
.	16G#\JJ	.	.
=85	=85	=85	=85
8C#XL 8EE 8AAA/	8.eL 8.A\	.	.
8EJ 8AA/	.	.	.
.	16a\Jk	.	]
8C#L 8EE 8AAA/	16eLL 16A\	.	.
.	16a\	.	.
8EJ 8AA/	16e 16A\	.	.
.	16a\JJ	.	.
=86	=86	=86	=86
8.CL 8.FF|\	8aL 8f 8A'\	.	.
.	8b-J 8g-X 8B-'\	.	.
16F\Jk	.	.	.
16CLL 16FF\	8ccL 8a 8c'\	.	.
16F\	.	.	.
16C 16FF\	8dd-XJ 8b- 8d-X'\	.	.
16F\JJ	.	.	.
=87	=87	=87	=87
8.CL 8.FF|\	8cc 8a 8c'\	.	.
.	8r	.	.
16F\Jk	.	.	.
16CLL 16FF\	4ff 4a 4f^^\	.	.
16F\	.	.	.
16C 16FF\	.	.	.
16F\JJ	.	.	.
!!LO:LB:g=original
=88	=88	=88	=88
8.CL 8.FF|\	8fL 8A 8F'/	.	.
.	8g-XJ 8B- 8G-X'/	.	.
16F\Jk	.	.	.
16CLL 16FF\	8aL 8c 8A'/	.	.
16F\	.	.	.
16C 16FF\	8b-J 8d-X 8B-'/	.	.
16F\JJ	.	.	.
=89	=89	=89	=89
8.CL 8.FF|\	8a 8c 8A'/	.	.
.	8r	.	.
16F\Jk	.	.	.
16CLL 16FF\	4cc 4f 4c^^</	.	.
16F\	.	.	.
16C 16FF\	.	.	.
16F\JJ	.	.	.
=90	=90	=90	=90
8BBB-\L	8dd-XL 8b-'\	.	.
8G-XJ 8D-X\	8g-XJ 8d-X'\	.	.
8BB-\L	4dd- 4b-^^\	.	.
8d-XJ 8G-\	.	.	.
=91	=91	=91	=91
!LO:TX:t=P:problem=mixed beam	!	!	!
8GGG-X/L	8b-L 8g-X'\	.	.
8G-XJ 8BB-\	8enJ 8B-'\	.	.
8GG-X\L	4b- 4g-^^\	.	.
8B-J 8E\	.	.	.
=92	=92	=92	=92
8BB-L 8FF\	16dd-XLL 16f\	.	f
.	16cc\	.	.
8d-XJ 8B-\	16b- 16f\	.	.
.	16dd-\JJ	.	.
8CL 8FF\	16ccLL 16f\	.	.
.	16b-\	.	.
8e-XJ 8A\	16a 16f\	.	.
.	16cc\JJ	.	.
=93	=93	=93	=93
8FL 8BB-\	8b- 8f\	.	.
8d-XJ 8B-\	8r	.	.
8FL 8BB-\	4b- 4f\	.	.
8d-J 8B-\	.	.	.
=94	=94	=94	=94
(8FL 8BB-\	16a\LL	.	pp
.	16b-\	.	.
8e-XJ 8A\)	16cc\	.	.
.	16f\JJ	.	.
(8FL 8BB-\	16b-\LL	.	.
.	16cc\	.	.
8d-XJ 8B-\)	16dd-X\	.	.
.	16f\JJ	.	.
=95	=95	=95	=95
(8CL 8FF\	16cc\LL	.	.
.	16a\	.	.
8AJ 8F\)	16f\	.	.
.	16a\JJ	.	.
(8CL 8FF\	16cc\LL	.	.
.	16a\	.	.
8AJ 8F\)	16cc\	.	.
.	16ff\JJ	.	.
!!LO:LB:g=original
=96	=96	=96	=96
(8CL 8FF\	8.ccL 8.f\	.	.
8AJ 8F\)	.	.	.
.	16ff\Jk	.	.
(8CL 8FF\	16ccLL 16f\	.	.
.	16ff\	.	.
8AJ 8F\)	16cc 16f\	.	.
.	16ff\JJ	.	.
=97	=97	=97	=97
(8CL 8FF\	8cc 8f\	.	.
8AJ 8F\)	8r	.	.
(8CL 8FF\	8.ccL 8.f\	.	.
8AJ 8F\)	.	.	.
.	16dd-X\Jk	.	.
=98	=98	=98	=98
!	!	!	!LO:DY:t=sempre p:dur=2qe
8BB-L 8GG-X\	8dd-XL 8b-\	.	p
8B-J 8G-X\	8ccJ 8a-X\	.	.
8BB-L 8GG-\	4b- 4g-X\	.	.
8B-J 8G-\	.	.	.
=99	=99	=99	=99
8AA-XL 8DD-X\	16a-X\LL	.	.
.	16f\	.	.
8FJ 8D-X\	16d-X\	.	.
.	16f\JJ	.	.
8AA-L 8DD-\	16a-\LL	.	.
.	16f\	.	.
8FJ 8D-\	16a-\	.	.
.	16dd-y\JJ	.	.
=100	=100	=100	=100
8AA-XL 8DD-X\	8.a-XL 8.d-X\	.	.
8FJ 8D-X\	.	.	.
.	16dd-X\Jk	.	.
8AA-L 8DD-\	16a-LL 16d-\	.	.
.	16dd-\	.	.
8FJ 8D-\	16a- 16d-\	.	.
.	16dd-\JJ	.	.
=101	=101	=101	=101
8AA-XL 8DD-X\	8a-X 8d-X'\	.	.
8FJ 8D-X\	8r	.	.
8AA-L 8DD-\	4a- 4c^^\	.	.
8FJ 8D-\	.	.	.
=102	=102	=102	=102
8FFL 8CC\	16a-XLL 16c\	.	.
.	16g\	.	.
8A-XJ 8F\	16f 16c\	.	.
.	16a-\JJ	.	.
8GGL 8CC\	16gLL 16c\	.	.
.	16f\	.	.
8B-J 8En\	16e 16c\	.	.
.	16g\JJ	.	.
=103	=103	=103	=103
8CL 8FF\	8f 8c\	.	.
8A-XJ 8F\	8r	.	.
8CL 8FF\	4f 4c\	.	.
8A-J 8F\	.	.	.
!!LO:PB:g=original
=104	=104	=104	=104
8CL 8FF\	16e\LL	.	<
.	16f\	.	.
8B-J 8E\	16g\	.	.
.	16c\JJ	.	.
8CL 8FF\	16f\LL	.	.
.	16g\	.	.
8A-XJ 8F\	16a-X\	.	.
.	16c\JJ	.	.
=105	=105	=105	=105
8GGL 8CC\	16g\LL	.	.
.	16e\	.	.
8EJ 8C\	16c\	.	.
.	16e\JJ	.	.
8GGL 8CC\	16g\LL	.	.
.	16e\	.	.
8EJ 8C\	16g\	.	.
.	16cc\JJ	.	[[
=106	=106	=106	=106
8CL 8FF\	16fLL 16c\	.	f
.	16F\	.	.
8AnJ 8C\	16f 16c\	.	.
.	16F\JJ	.	.
8CL 8FF\	16fLL 16c\	.	.
.	16F\	.	.
8AJ 8C\	16f 16c\	.	.
.	16F\JJ	.	.
=107	=107	=107	=107
8CL 8FF\	8f 8c'/	.	.
8AJ 8C\	8r	.	.
8CL 8FF\	4f 4c^^</	.	.
8AJ 8C\	.	.	.
=108	=108	=108	=108
8DL 8FF\	8ffL 8dd\	.	.
!	!	!	!LO:DY:rj
8B-J 8D\	8eeJ 8cc#X\	.	f
8DL 8FF\	4dd 4b-\	.	.
8B-J 8D\	.	.	.
=109	=109	=109	=109
8DL 8FF\	16ddLL 16b-\	.	.
.	16cc#X 16a\	.	.
8B-J 8D\	16dd 16b-\	.	.
.	16eeJJ 16cc#\	.	.
8DL 8FF\	4dd 4b-\	.	.
8B-J 8D\	.	.	.
=110	=110	=110	=110
8DL 8FF\	16ffLL 16a\	.	.
.	16ee\	.	.
8B-J 8D\	16dd 16a\	.	.
.	16ff\JJ	.	.
8C#XL 8AA\	16eeLL 16a\	.	.
.	16dd\	.	.
8AJ 8C#\	16cc#X 16a\	.	.
.	16ee\JJ	.	.
!!LO:LB:g=original
=111	=111	=111	=111
8AAL 8DD\	8.ddL 8.a\	.	.
8F#XJ 8AA\	.	.	.
.	16d\Jk	.	.
8AAL 8DD	16ddLL 16a\	.	.
.	16d\	.	.
8F#J 8AA\	16dd 16a\	.	.
.	16d\JJ	.	.
=112	=112	=112	=112
8DL 8GG\	16gg\LL	.	.
!	!	!	!LO:DY:rj
.	16ff#X\	.	p
8gJ 8d\	16gg\	.	.
.	16aa\JJ	.	.
8B-L 8G\	16bb-\LL	.	.
.	16aa\	.	.
8gJ 8d\	16gg\	.	.
.	16bb-\JJ	.	.
=113	=113	=113	=113
8dL 8A\	16aa\LL	.	.
.	16gg\	.	.
8aJ 8f#X\	16ff#X\	.	.
.	16aa\JJ	.	.
8BnL 8G\	16gg\LL	.	.
.	16ff#\	.	.
8gJ 8e\	16ee\	.	.
.	16gg\JJ	.	.
=114	=114	=114	=114
8dL 8A\	16ff#X\LL	.	.
.	16ee\	.	.
8aJ 8f#X\	16dd\	.	.
.	16ff#\JJ	.	.
8c#XL 8A\	16ee\LL	.	.
.	16dd\	.	.
8aJ 8g\	16cc#X\	.	.
.	16ee\JJ	.	.
=115	=115	=115	=115
8AL 8D\	8dd 8a\	.	.
8f#XJ 8d\	8r	.	.
8AL 8D\	4dd 4a\	.	.
8f#J 8d\	.	.	.
=116	=116	=116	=116
16G\LL	8ddL 8b-'\	.	.
16d\	.	.	p
16d\	16ddL 16b-'\	.	.
16g\JJ	16cc#XJJ 16a'\	.	.
16G\LL	8b-L 8g\	.	.
16d\	.	.	.
16d\	8ddJ 8b-\	.	.
16g\JJ	.	.	.
=117	=117	=117	=117
16F#X\LL	4dd 4a\	.	.
16d\	.	.	.
16d\	.	.	.
16f#X\JJ	.	.	.
4r	16a\LL	.	.
.	16f#X\	.	.
.	16a\	.	.
.	16dd\JJ	.	.
!!LO:LB:g=original
=118	=118	=118	=118
16E-X\LL	8b-L 8g'\	.	.
16B-\	.	.	.
16B-\	16b-L 16g'\	.	.
16e-X\JJ	16aJJ 16f#X'\	.	.
16E-\LL	8gL 8e'\	.	.
16B-\	.	.	.
16B-\	8b-J 8g'\	.	.
16e-\JJ	.	.	.
=119	=119	=119	=119
16D\LL	4b- 4f#X\	.	.
16B-\	.	.	.
16B-\	.	.	.
16d\JJ	.	.	.
4r	16f#\LL	.	.
.	16d\	.	.
.	16f#\	.	.
.	16b-\JJ	.	.
=120	=120	=120	=120
16E-X\LL	8b-L 8g'/	.	.
16B-\	.	.	.
16B-\	8aJ 8f#X'/	.	.
16e-X\JJ	.	.	.
16BB-\LL	8gL 8e-X'/	.	.
16E-\	.	.	.
16E-\	8f#J 8d'/	.	.
16B-\JJ	.	.	.
=121	=121	=121	=121
16BB-\LL	8gL 8e-X'/	.	.
16E-X\	.	.	.
16E-\	8aJ 8f#X'/	.	.
16B-\JJ	.	.	.
16GG\LL	8b-L 8g'/	.	.
16E-\	.	.	.
16E-\	8cc#XJ 8a'/	.	.
16G\JJ	.	.	.
=122	=122	=122	=122
16G\LL	8ddL 8b-'\	.	.
16d\	.	.	.
16d\	8cc#XJ 8a'\	.	.
16g\JJ	.	.	.
16D\LL	8b-L 8g'\	.	.
16G\	.	.	.
16G\	8aJ 8f#X'\	.	.
16d\JJ	.	.	.
=123	=123	=123	=123
16D\LL	8b-L 8g'\	.	.
16G\	.	.	.
16G\	8cc#XJ 8a'\	.	.
16d\JJ	.	.	.
16BB-\LL	8ddL 8b-'\	.	.
16G\	.	.	.
16G\	8ggJ 8dd'\	.	.
16B-\JJ	.	.	.
=124	=124	=124	=124
16G\LL	8ggL 8ee-X'\	.	<
16c\	.	.	.
16c\	16ggL 16ee-'\	.	.
16g\JJ	16ff#XJJ 16dd'\	.	.
4r	8ee-L 8cc'\	.	.
.	8ddJ 8bn'\	.	.
!!LO:LB:g=original
=125	=125	=125	=125
16E-X\LL	8ee-XL 8cc'\	.	.
16A-X\	.	.	.
16A-\	16ee-L 16cc'\	.	.
16e-X\JJ	16ddJJ 16bn'\	.	.
4r	8ccL 8a-X'\	.	.
.	8bJ 8g'\	.	.
=126	=126	=126	=126
16E-X\LL	8.ccL 8.g/	.	.
16G\	.	.	f
16c\JJ	.	.	.
16r	16c/Jk	.	.
4r	16ccLL 16g/	.	.
.	16c/	.	.
.	16cc 16g/	.	.
.	16c/JJ	.	.
=127	=127	=127	=127
16GG\LL	8.bnL 8.g/	.	f
16D\	.	.	.
16Bn\JJ	.	.	.
16r	16Bn/Jk	.	.
4r	16bLL 16g/	.	.
.	16B/	.	.
.	16b 16g/	.	.
.	16B/JJ	.	.
=128	=128	=128	=128
!	!LO:TX:t=P:problem=mixed beam	!	!
8DL 8AA-X\	16f#X^^</LL	.	f
.	16d/	.	.
8A-XJ 8D\	16dd'>^^\	.	.
.	16d\JJ	.	.
8cL 8D\	16ff#X'>^^\LL	.	.
.	16d\	.	.
8A-J 8D\	16dd'^^\	.	.
.	16d\JJ	.	.
=129	=129	=129	=129
8DL 8GG\	16g'^^\LL	.	.
.	16d\	.	.
8GJ 8D\	16dd'^^\	.	.
.	16d\JJ	.	.
8BnL 8D\	16gg'^^\LL	.	.
.	16d\	.	.
8GJ 8D\	16dd'^^\	.	.
.	16d\JJ	.	.
=130	=130	=130	=130
!LO:TX:t=P:problem=mixed beam	!	!	!
8GGL 8DD/	16bnLL 16d\	.	.
.	16a\	.	.
8BnJ 8G\	16g 16d\	.	.
.	16b\JJ	.	.
!LO:TX:t=P:problem=mixed beam	!	!	!
8AAL 8DD/	16aLL 16d\	.	.
.	16g\	.	.
8cJ 8F#X\	16f#X 16d\	.	.
.	16a\JJ	.	.
!!LO:LB:g=original
=131	=131	=131	=131
8DL 8GG\	8g 8d\	.	.
8BnJ 8G\	8r	.	.
8DL 8GG\	4g 4d\	.	.
8BJ 8G\	.	.	.
=132	=132	=132	=132
8EL 8GG\	8ggL 8ee\	.	f
8cJ 8E\	8ff#XJ 8dd#X\	.	.
8EL 8GG\	4ee 4cc\	.	.
8cJ 8E\	.	.	.
=133	=133	=133	=133
8EL 8GG\	16eeLL 16cc\	.	.
.	16dd#X 16bn\	.	.
8cJ 8E\	16ee 16cc\	.	.
.	16ff#XJJ 16dd#\	.	.
8EL 8GG\	4ee 4cc\	.	.
8cJ 8E\	.	.	.
=134	=134	=134	=134
8EL 8GG\	16ggLL 16bn\	.	.
.	16ff#X\	.	.
8BnJ 8E\	16ee 16b\	.	.
.	16gg\JJ	.	.
8D#XL 8BBn\	16ff#LL 16b\	.	.
.	16ee\	.	.
8BJ 8D#\	16dd#X 16b\	.	.
.	16ff#\JJ	.	.
=135	=135	=135	=135
8BBnL 8EE/	8.eeL 8.bn\	.	.
8G#XJ 8BB/	.	.	.
.	16e\Jk	.	.
8BBL 8EE/	16eeLL 16b\	.	.
.	16e\	.	.
8G#J 8BB/	16ee 16b\	.	.
.	16e\JJ	.	.
=136	=136	=136	=136
8AAL\	16aa\LL	.	.
.	16gg#X\	.	p
*clefG2	*	*	*
8aJ 8e\	16aa\	.	.
.	16bbn\JJ	.	.
8cL 8A/	16ccc\LL	.	.
.	16bb\	.	.
8aJ 8e/	16aa\	.	.
.	16ccc\JJ	.	.
=137	=137	=137	=137
8eL 8Bn/	16bbn\LL	.	.
.	16aa\	.	.
8bnJ 8g#X/	16gg#X\	.	.
.	16bb\JJ	.	.
8c#XL 8A/	16aa\LL	.	.
.	16gg#\	.	.
8aJ 8f#X/	16ff#X\	.	.
.	16aa\JJ	.	.
!!LO:LB:g=original
=138	=138	=138	=138
8eL 8Bn/	16gg#X\LL	.	.
.	16ff#X\	.	.
8bnJ 8g#X/	16ee\	.	.
.	16gg#\JJ	.	.
8d#XL 8B/	16ff#\LL	.	.
.	16ee\	.	.
8bJ 8a/	16dd#X\	.	.
.	16ff#\JJ	.	.
*clefF4	*	*	*
=139	=139	=139	=139
8BnL 8E\	8ee 8bn\	.	.
8g#XJ 8e\	8r	.	.
8BL 8E\	4ee 4b\	.	.
8g#J 8e\	.	.	.
=140	=140	=140	=140
!	!LO:TX:a:i:t=staccato.	!	!
16A\LL	8eeL 8cc\	.	p
16e\	.	.	.
16e\	16eeL 16cc\	.	.
16a\JJ	16dd#XJJ 16bn\	.	.
16A\LL	8ccL 8a\	.	.
16e\	.	.	.
16e\	8eeJ 8cc\	.	.
16a\JJ	.	.	.
=141	=141	=141	=141
16G#X\LL	4ee 4bn\	.	.
16e\	.	.	.
16e\	.	.	.
16g#X\JJ	.	.	.
4r	16b\LL	.	.
.	16g#X\	.	.
.	16b\	.	.
.	16ee\JJ	.	.
=142	=142	=142	=142
16F\LL	8ccL 8a'\	.	.
16c\	.	.	.
16c\	16ccL 16a'\	.	.
16f\JJ	16bnJJ 16g#X'\	.	.
16F\LL	8aL 8f'\	.	.
16c\	.	.	.
16c\	8ccJ 8a'\	.	.
16f\JJ	.	.	.
=143	=143	=143	=143
16E\LL	4cc 4g#X\	.	.
16c\	.	.	.
16c\	.	.	.
16e\JJ	.	.	.
4r	16g#\LL	.	.
.	16e\	.	.
.	16g#\	.	.
.	16cc\JJ	.	.
=144	=144	=144	=144
16F\LL	8ccL 8a'\	.	.
16c\	.	.	.
16c\	8bnJ 8g#X'\	.	.
16f\JJ	.	.	.
16C\LL	8aL 8f'\	.	.
16F\	.	.	.
16F\	8g#J 8e'\	.	.
16c\JJ	.	.	.
!!LO:PB:g=original
=145	=145	=145	=145
!	!LO:TX:a:i:t=sempre staccato:dur=3q	!	!
16C\LL	8aL 8f\	.	.
16F\	.	.	.
16F\	8bnJ 8g#X\	.	.
16c\JJ	.	.	.
16AA\LL	8ccL 8a\	.	.
16F\	.	.	.
16F\	8dd#XJ 8b\	.	.
16A\JJ	.	.	.
=146	=146	=146	=146
16A\LL	8eeL 8cc\	.	.
16e\	.	.	.
16e\	8dd#XJ 8bn\	.	.
16a\JJ	.	.	.
16E\LL	8ccL 8a\	.	.
16A\	.	.	.
16A\	8bJ 8g#X\	.	.
16e\JJ	.	.	.
=147	=147	=147	=147
16E\LL	8ccL 8a\	.	.
16A\	.	.	.
16A\	8dd#XJ 8bn\	.	.
16e\JJ	.	.	.
16C\LL	8eeL 8cc\	.	.
16A\	.	.	.
16A\	8aaJ 8ee\	.	.
16c\JJ	.	.	.
=148	=148	=148	=148
16A\LL	8aaL 8ff\	.	.
16d\	.	.	.
16d\	16aaL 16ff\	.	.
16a\JJ	16gg#XJJ 16ee\	.	.
4r	8ffL 8dd\	.	.
.	8eeJ 8cc#X\	.	.
=149	=149	=149	=149
16F\LL	8ffL 8dd\	.	.
16B-\	.	.	.
16B-\	16ffL 16dd\	.	.
16f\JJ	16eeJJ 16cc#X\	.	.
4r	8ddL 8b-\	.	.
.	8cc#J 8a\	.	.
=150	=150	=150	=150
16F\LL	8.ddL 8.a\	.	<
16A\	.	.	.
16d\JJ	.	.	.
16r	16d\Jk	.	.
4r	16ddLL 16a\	.	.
.	16d\	.	.
.	16dd 16a\	.	.
.	16d\JJ	.	.
=151	=151	=151	=151
16AA\LL	8.cc#XL 8.a\	.	.
16E\	.	.	.
16c#X\JJ	.	.	.
16r	16c#X\Jk	.	.
4r	16cc#LL 16a\	.	.
.	16c#X\	.	.
.	16cc# 16a\	.	.
.	16c#\JJ	.	.
=152	=152	=152	=152
8EL 8BB-\	16g#X^^\LL	.	f
.	16e\	.	.
8B-J 8E\	16ee^^\	.	.
.	16e\JJ	.	.
!!LO:LB:g=original
8dL 8E\	16gg#X^^\LL	.	.
.	16e\	.	.
8B-J 8E\	16ee^^\	.	.
.	16e\JJ	.	.
=153	=153	=153	=153
8EL 8AA\	16a^^\LL	.	.
.	16e\	.	.
8AJ 8E\	16ee^^\	.	.
.	16e\JJ	.	.
8c#XL 8E\	16aa^^\LL	.	.
.	16e\	.	.
8AJ 8E\	16ee^^\	.	.
.	16e\JJ	.	.
=154	=154	=154	=154
8AAL 8EE\	16cc#XLL 16e\	.	.
.	16bn\	.	.
8c#XJ 8A\	16a 16e\	.	.
.	16cc#\JJ	.	.
8BBnL 8EE\	16bLL 16e\	.	.
.	16a\	.	.
8dJ 8G#X\	16g#X 16e\	.	.
.	16b\JJ	.	.
=155	=155	=155	=155
8EL 8AA\	8a 8e\	.	.
.	.	.	<
8c#XJ 8A\	8r	.	.
8EL 8AA\	4a 4e\	.	.
8c#J 8A\	.	.	.
=156	=156	=156	=156
.	32qqa\LLL	.	.
.	32qqb-\	.	.
!	!LO:TX:b:t=↓	!	!
.	32qqcc#X\JJJ	.	.
8AAL 8DD\	8ddL 8a 8f'\	.	.
8EJ 8AA\	8cc#J 8g#X 8e'\	.	[
8AAL 8DD\	8b-L 8f 8d'\	.	.
8EJ 8AA\	8aJ 8e 8c#X'\	.	.
=157	=157	=157	=157
.	32qqd\LLL	.	.
.	32qqe-X\	.	.
.	32qqf#X\JJJ	.	.
!	!	!	!LO:DY:rj
8AAL 8DD\	4a\	.	p
8DJ 8AA\	.	.	.
.	32qqd\LLL	.	.
.	32qqe-\	.	.
.	32qqf#\JJJ	.	.
8AAL 8DD\	4a\	.	.
8DJ 8AA\	.	.	.
=158	=158	=158	=158
8AAL 8DD\	8.aL 8.f#X 8.d\	.	.
8F#XJ 8AA\	.	.	.
.	16ddJk 16b-\	.	.
8AAL 8DD\	16aLL 16f# 16d\	.	.
.	16dd 16b-\	.	.
8F#J 8AA\	16a 16f# 16d\	.	.
.	16ddJJ 16b-\	.	.
!!LO:LB:g=original
=159	=159	=159	=159
8AAL 8DD\	8.aL 8.f#X 8.d\	.	.
8F#XJ 8AA\	.	.	.
.	16A\Jk	.	.
8AAL 8DD\	16aLL 16f# 16d\	.	.
.	16A\	.	.
8F#J 8AA\	16a 16f# 16d\	.	.
.	16A\JJ	.	.
=160	=160	=160	=160
8BB-L 8DD\	16aLL 16f#X 16d\	.	.
.	16g 16e-X\	.	.
.	.	.	<
8GJ 8BB-\	16a 16f# 16d\	.	.
.	16gJJ 16e-\	.	.
8GL 8BB-\	16aLL 16f# 16d\	.	.
.	16g 16e-\	.	.
8GJ 8BB-\	16a 16f# 16d\	.	.
.	16gJJ 16e-\	.	.
=161	=161	=161	=161
8BB-L 8DD\	16ccLL 16a 16f#X\	.	.
.	16b- 16g\	.	.
8GJ 8BB-\	16cc 16a 16f#\	.	.
.	16b-JJ 16g\	.	.
8GL 8BB-\	16ccLL 16a 16f#\	.	.
.	16b- 16g\	.	.
8GJ 8BB-\	16cc 16a 16f#\	.	.
.	16b-JJ 16g\	.	.
=162	=162	=162	=162
8BBnL 8DD\	16eeLL 16bn 16g#X\	.	.
.	16a#X 16gn\	.	.
8G#XJ 8BB\	16ee 16b 16g#X\	.	.
.	16a#JJ 16gn\	.	.
8G#L 8BB\	16eeLL 16b 16g#X\	.	.
.	16a# 16gn\	.	.
8G#J 8BB\	16ee 16b 16g#X\	.	.
.	16a#JJ 16gn\	.	.
=163	=163	=163	=163
8G#X 8BBn 8DD\	8ee 8bn 8g#X\	.	.
8r	8r	.	.
4G# 4BB-X 4DD\	4ee 4b-X 4g#\	.	[
=164	=164	=164	=164
8C#XL 8EE 8AAA/	8.aL 8.g 8.c#X\	.	>
8GJ 8AA/	.	.	.
.	16ee\Jk	.	.
8C#L 8EE 8AAA/	16aLL 16g 16c#\	.	.
.	16ee\	.	.
8GJ 8AA/	16a 16g 16c#\	.	.
.	16ee\JJ	.	.
=165	=165	=165	=165
8AAL 8DD/	8.aL 8.f 8.d\	.	.
8FJ 8AA/	.	.	.
.	16dd\Jk	.	.
8AAL 8DD/	16aLL 16f 16d\	.	.
.	16dd\	.	.
8FJ 8AA/	16a 16f 16d\	.	.
.	16dd\JJ	.	]]
!!LO:LB:g=original
=166	=166	=166	=166
8AAL 8EE\	16ccLL 16a 16e/	.	.
.	16A/	.	.
8EJ 8AA\	16cc 16a 16e/	.	.
.	16A/JJ	.	.
8GG#XL 8EE\	16bnLL 16g#X 16e/	.	.
.	16G#X/	.	.
8EJ 8GG#\	16b 16g# 16e/	.	.
.	16G#/JJ	.	.
=167	=167	=167	=167
8C#XL 8EE 8AAA/	8.eL 8.A/	.	.
8EJ 8AA/	.	.	.
.	16a/Jk	.	.
8C#L 8EE 8AAA/	16eLL 16A/	.	.
.	16a/	.	.
8EJ 8AA/	16e 16A/	.	.
.	16a/JJ	.	.
=168	=168	=168	=168
8AAL 8AAA/	8.aaL 8.gg 8.cc#X\	.	ff
8EJ 8EE/	.	.	.
.	16eee\Jk	.	.
8AL 8AA\	16aaLL 16gg 16cc#\	.	.
.	16eee\	.	.
8eJ 8E\	16aa 16gg 16cc#\	.	.
.	16eee\JJ	.	.
=169	=169	=169	=169
8DL 8DD/	8.aaL 8.ff 8.dd\	.	.
8AJ 8AA/	.	.	.
.	16ddd\Jk	.	.
8dL 8D\	16aaLL 16ff 16dd\	.	.
.	16ddd\	.	.
8aJ 8A\	16aa 16ff 16dd\	.	.
.	16ddd\JJ	.	.
=170	=170	=170	=170
8EL 8EE\	16cccLL 16aa 16ee\	.	.
.	16a\	.	.
8AJ 8AA\	16ccc 16aa 16ee\	.	.
.	16a\JJ	.	.
8BnL 8BBn\	16bbnLL 16gg#X 16ee\	.	.
.	16g#X\	.	.
8eJ 8E\	16bb 16gg# 16ee\	.	.
.	16g#\JJ	.	.
=171	=171	=171	=171
8AAL 8AAA/	8.eeL 8.a\	.	.
8EJ 8EE/	.	.	.
.	16aa\Jk	.	.
8AL 8AA\	16eeLL 16a\	.	.
.	16aa\	.	.
8eJ 8E\	16ee 16a\	.	.
.	16aa\JJ	.	.
=172	=172	=172	=172
!	!	!	!LO:DY:t=sempre forte.
8AA 8DD'/	8ff#XL 8dd 8f#X\	.	f
8r	8ggJ 8ee-X 8g\	.	.
!!LO:LB:g=original
16AALL 16DD^^\	8aaL 8ff#X 8a\	.	.
16D\	.	.	.
16A 16D\	8bb-J 8gg 8b-\	.	.
16d\JJ	.	.	.
=173	=173	=173	=173
8AA 8DD'/	8aa 8ff#X 8a'\	.	.
8r	8r	.	.
16AALL 16DD^^\	4ddd 4ff# 4dd^^\	.	.
16D\	.	.	.
16A 16D\	.	.	.
16d\JJ	.	.	.
=174	=174	=174	=174
8AA 8DD'/	8ddL 8f#X 8d\	.	.
8r	8ee-XJ 8g 8e-X\	.	.
16AALL 16DD^^\	8ff#XL 8a 8f#\	.	.
16D\	.	.	.
16A 16D\	8ggJ 8b- 8g\	.	.
16d\JJ	.	.	.
=175	=175	=175	=175
8AA 8DD'/	8ff#X 8a 8f#X'\	.	.
8r	8r	.	.
16AALL 16DD^^\	4aa 4dd 4a^^\	.	.
16D\	.	.	.
16A 16D\	.	.	.
16d\JJ	.	.	.
=176	=176	=176	=176
8GGL 8GGG/	8bb-L 8gg 8b-\	.	.
8E-XJ 8EE-X/	8ee-XJ 8b- 8e-X\	.	.
8B-L 8BB-\	4bb- 4gg 4b-^^\	.	.
8e-XJ 8E-\	.	.	.
=177	=177	=177	=177
8EE-XL 8EEE-X/	8ggL 8ee-X 8g'\	.	.
8E-XJ 8EE-/	8cc#XJ 8g 8c#X'\	.	.
8GL 8GG\	4gg 4ee- 4g^^\	.	.
8e-XJ 8E-\	.	.	.
=178	=178	=178	=178
8DL 8DD\	16bb-LL 16b-\	.	.
.	16aa 16a\	.	.
8GJ 8GG\	16gg 16g\	.	.
.	16bb-JJ 16b-\	.	.
8AL 8AA\	16aaLL 16a\	.	.
.	16gg 16g\	.	.
8dJ 8D\	16ff#X 16f#X\	.	.
.	16aaJJ 16a\	.	.
=179	=179	=179	=179
8DL 8GG\	8gg 8g\	.	.
8B-J 8G\	8r	.	.
8dL 8G\	4gg^^\	.	.
8b-J 8g\	.	.	.
=180	=180	=180	=180
(8DL 8GG\	16ff#X\LL	.	.
.	16gg\	.	.
!	!	!	!LO:DY:rj
8cJ 8F#X\)	16aa\	.	pp
.	16dd\JJ	.	.
!!LO:LB:g=original
(8B-L 8G\	16gg\LL	.	.
.	16aa\	.	.
8b-J 8d\)	16bb-\	.	.
.	16dd\JJ	.	.
=181	=181	=181	=181
(8AAL 8DD\	16aa\LL	.	.
.	16ff#X\	.	.
8F#XJ 8D\)	16dd\	.	.
.	16ff#\JJ	.	.
(8AL 8D\	16aa\LL	.	.
.	16ff#\	.	.
8f#XJ 8d\)	16aa\	.	.
.	16ddd\JJ	.	.
=182	=182	=182	=182
(8AAL 8DD\	8.aaL 8.dd\	.	.
8F#XJ 8D\)	.	.	.
.	16ddd\Jk	.	.
(8AL 8D\	16aaLL 16dd\	.	.
.	16ddd\	.	.
8f#XJ 8d\)	16aa 16dd\	.	.
.	16ddd\JJ	.	.
=183	=183	=183	=183
(8AAL 8DD\	4aa 4dd\	.	.
8F#XJ 8D\)	.	.	.
(8AL 8D\	8.aaL 8.dd\	.	.
8f#XJ 8d\)	.	.	.
.	16bb-\Jk	.	.
=184	=184	=184	=184
(8GGL 8EE-X/	8bb-L 8gg\	.	.
8GJ 8E-X/)	8aaJ 8ff\	.	.
(8GL 8E-\	4gg 4ee-X\	.	.
8gJ 8e-X\)	.	.	.
=185	=185	=185	=185
(8FFL 8BBB-/	16ff\LL	.	.
.	16dd\	.	.
8DJ 8BB-/)	16b-\	.	.
.	16dd\JJ	.	.
(8FL 8BB-\	16ff\LL	.	.
.	16dd\	.	.
8dJ 8B-\)	16ff\	.	.
.	16bb-\JJ	.	.
=186	=186	=186	=186
(8FFL 8BBB-/	8.ffL 8.b-\	.	.
8DJ 8BB-/)	.	.	.
.	16bb-\Jk	.	.
(8FL 8BB-\	16ffLL 16b-\	.	.
.	16bb-\	.	.
8dJ 8B-\)	16ff 16b-\	.	.
.	16bb-\JJ	.	.
=187	=187	=187	=187
8FFL 8BBB-/	8ff 8b-\	.	.
8DJ 8BB-/	8r	.	.
8FL 8BB-\	4ff 4b-\	.	.
8dJ 8B-\	.	.	.
!!LO:PB:g=original
=188	=188	=188	=188
8FFL 8AAA/	16ffLL 16a\	.	.
.	16ee\	.	.
8DJ 8AA/	16dd 16a\	.	.
.	16ff\JJ	.	.
8EL 8AA\	16eeLL 16a\	.	.
.	16dd\	.	.
8c#XJ 8G\	16cc#X 16a\	.	.
.	16ee\JJ	.	.
=189	=189	=189	=189
8AAL 8DD\	8dd 8a\	.	.
8FJ 8D\	8r	.	.
8AL 8D\	4dd 4a\	.	.
8fJ 8d\	.	.	.
=190	=190	=190	=190
8AAL 8DD\	16cc#X\LL	.	.
.	16dd\	.	<
8AJ 8C#X\	16ee\	.	.
.	16a\JJ	.	.
8AL 8D\	16dd\LL	.	.
.	16ee\	.	.
8fJ 8A\	16ff\	.	.
.	16a\JJ	.	.
=191	=191	=191	=191
8EEL 8AAA/	16ee\LL	.	.
.	16cc#X\	.	.
8C#XJ 8EE/	16a\	.	.
.	16cc#\JJ	.	.
8EL 8AA\	16ee\LL	.	.
.	16cc#\	.	.
8c#XJ 8E\	16ee\	.	.
.	16aa\JJ	.	.
=192	=192	=192	=192
8AAL 8DD\	16ddLL 16a\	.	.
.	16d\	.	.
8F#XJ 8AA\	16dd 16a\	.	.
.	16d\JJ	.	.
8AL 8D\	16ddLL 16a\	.	.
.	16d\	.	.
8f#XJ 8A\	16dd 16a\	.	.
.	16d\JJ	.	[
=193	=193	=193	=193
8AAL 8DD\	8dd 8a\	.	.
8F#XJ 8AA\	8r	.	.
8AL 8D\	4dd 4a 4d\	.	.
8f#XJ 8A\	.	.	.
=194	=194	=194	=194
8BBnL 8DD\	8dddL 8bbn\	.	.
.	.	.	f
8GJ 8BB\	8ccc#XJ 8aa#X\	.	.
8BnL 8D\	4bb 4gg\	.	.
8gJ 8B\	.	.	.
!!LO:LB:g=original
=195	=195	=195	=195
8BBnL 8DD\	16bbnLL 16gg\	.	.
.	16aa#X 16ff#X\	.	.
8GJ 8BB\	16bb 16gg\	.	.
.	16ccc#XJJ 16aa#\	.	.
8BnL 8D\	4bb 4gg\	.	.
8gJ 8B\	.	.	.
=196	=196	=196	=196
8AAL 8DD\	16aan\LL	.	.
.	16ff#X\	.	.
8F#XJ 8AA\	16dd\	.	.
.	16ff#\JJ	.	.
8AL 8D\	16aa\LL	.	.
.	16ff#\	.	.
8f#XJ 8A\	16aa\	.	.
.	16ddd\JJ	.	.
=197	=197	=197	=197
8AAL 8DD\	8aa\	.	.
8F#XJ 8AA\	8r	.	.
8AL 8D\	4aa 4dd\	.	.
8f#XJ 8A\	.	.	.
=198	=198	=198	=198
4GG 4GGG/	16gg\LL	.	.
.	.	.	>
.	16ff#X\	.	.
.	16gg\	.	.
.	16aa\JJ	.	.
8BnL 8G\	16bbn\LL	.	.
.	16aa\	.	.
8gJ 8e\	16gg\	.	.
.	16bb\JJ	.	.
=199	=199	=199	=199
8dL 8A\	16aa\LL	.	.
.	16gg\	.	.
8aJ 8f#X\	16ff#X\	.	.
.	16aa\JJ	.	.
8BnL 8G\	16gg\LL	.	.
.	16ff#\	.	.
8gJ 8e\	16ee\	.	.
.	16gg\JJ	.	.
=200	=200	=200	=200
8dL 8A\	16ff#X\LL	.	.
.	16ee\	.	.
8aJ 8f#X\	16dd\	.	.
.	16ff#\JJ	.	.
8c#XL 8A\	16ee\LL	.	]
.	16dd\	.	.
8aJ 8g\	16cc#X\	.	.
.	16ee\JJ	.	.
=201	=201	=201	=201
8AAL 8DD\	8dd 8a\	.	.
8F#XJ 8D\	8r	.	.
8AL 8D\	4dd 4a 4d\	.	.
8f#XJ 8d\	.	.	.
!!LO:LB:g=original
=202	=202	=202	=202
8AAL 8DD\	4dd 4a 4d\	.	<
8F#XJ 8D\	.	.	.
8AL 8D\	4ddd 4aa 4dd\	.	.
8f#XJ 8d\	.	.	.
=203	=203	=203	=203
8AL 8D\	4ddd 4aa 4dd\	.	.
8f#XJ 8d\	.	.	.
*clefG2	*8va	*	*
8aL 8d\	4dddd 4aaa 4ddd\	.	[
8ff#XJ 8dd\	.	.	.
=204	=204	=204	=204
!LO:TX:t=P:problem=arpeggio z prawej strony	!	!	!
4ff#X: 4dd: 4a: 4d:\	32dddd\LLL	.	>
.	32aaa\	.	.
.	32fff#X\	.	.
.	32eee-X\	.	.
.	32dddd\	.	.
.	32aaa\	.	.
.	32fff#\	.	.
.	32eee-\JJJ	.	.
*	*X8va	*	*
!	!LO:TX:a:t=loco.	!	!
32dd\LLL	32ddd\LLL	.	.
32a\	32aa\	.	.
32f#X\	32ff#X\	.	.
32e-X\	32ee-X\	.	.
32dd\	32ddd\	.	.
32a\	32aa\	.	.
32f#\	32ff#\	.	.
32e-\JJJ	32ee-\JJJ	.	.
*clefF4	*	*	*
32d\LLL	32dd\LLL	.	.
32A\	32a\	.	.
32F#X\	32f#X\	.	.
32E-X\	32e-X\	.	]
32d\	32dd\	.	.
32A\	32a\	.	.
32F#\	32f#\	.	.
32E-\JJJ	32e-\JJJ	.	.
32D\LLL	32d</LLL	.	.
32AA\	32A</	.	.
32FF#X\	32F#X</	.	.
32EE-X\	32E-X</	.	.
32DD\	32D</	.	.
32AAA\	32AA</	.	.
32FFF#X\	32FF#X</	.	.
32EEE-X\JJJ	32EE-X</JJJ	.	.
=205	=205	=205	=205
4DDD\	4DD</	.	.
4r	4ryy	.	.
=206	=206	=206	=206
*^	*	*	*
!LO:TX:t=P:problem=znak arpegio z prawej strony	!	!LO:TX:a:t=ms.	!	!
4a: 4d: 4A:/	4F#X: 4AA: 4DD:\	4dd\	.	.
4r	4ryy	4r	.	.
*v	*v	*	*	*
=207	=207	=207	=207
!LO:TX:a:t=md.	!LO:TX:b:t=Fi	!	!
32qqDD 32qqDDD\	32qqD</	.	.
2DD 2DDD/	2D</	.	.
==	==	==	==
*-	*-	*-	*-
!!!system-decoration: {(s1,s2)}
!!!RDF**kern: > = above
!!!RDF**kern: < = below
!!!RDF**kern: | = vertical stroke
!!!RDF**dynam: f ="f."
!!!RDF**dynam: p ="p."
!!!RDF**dynam: pp ="pp."
!!!ENC: Andrzej Kubiczek
!!!END: 2021-05-22
!!!ENC: Marcin Jachim
!!!END: 2021-05-07
